!!!OTL: Untreue. / a. Urform
!!!ARE: Europa, Mitteleuropa, Deutschland
!!!SCT: A0215A
!!!TXL: @@GMH
!!!YEM: Copyright 1995, estate of Helmut Schaffrath.
**kern	**text
!! Mixed meters:  4/2; 6/2
*M4/2	*
*met(c|)	*
*clefC4	*
*k[]	*
*e:phr	*
=1	=1
!LO:TX:a:t=phryg.	!
1ryy	.
2ryy	.
{2A	Jch
=2	=2
2A	het
2A	mir
2c	für-
2c	-ge-
=3	=3
1B	-nom-
2A/}	-men
{2A/	ʒu
=4	=4
*M6/2	*
1A	die-
2E	-nen
2G	ſte-
1F	-tig-
=5	=5
*M4/2	*
1E	-lich:
2r}	.
{2A	So
=6	=6
2A	hat
2A	man
2c	mich
2c	ver-
=7	=7
1B	-drun-
2A/}	-gen,
{2A/	daſ-
=8	=8
*M6/2	*
1A	-ſel-
2E	-big
2G	krenk-
1F	-ket
=9	=9
*M4/2	*
1E	mich.
2r}	.
{2c	Be-
=10	=10
*M6/2	*
2c	-trübt
1c	iſt
1B	mir
2c	mein
=11	=11
1.d	her-
4c	.
4B	.
1A	.
=12	=12
*M4/2	*
1G}	-tʒe,
{1c	das
=13	=13
1B	ſie
2c	muß
1d	fa-
=14-	=14-
.	.
1c	.
2B	-ren
=15	=15
1c	lan,
2r}	.
{2c	drumb
=16	=16
*M6/2	*
1d	ſie
1d	mich
1e	hat
=17-	=17-
*M4/2	*
*lig	*
2d	ver-
1c	-ko-
4B	.
4A	.
=18	=18
*M6/2	*
1B	.
*Xlig	*
1A}	-ren
{1B	vmb
=19	=19
*M4/2	*
1c	ei-
2G	-nen
*lig	*
1A	an-
=20-	=20-
.	.
2G	.
*Xlig	*
1F	-dern
=21	=21
0E/ll}	man.
==	==
!!!GTL: Liebeslieder
!!!AGN: Romanze, Ballade, Lied
!! Gassenhawerlin 1535 No. 14
!!!ONB: ESAC (Essen Associative Code) Database: ALTDEU
!!!AMT: irregular
!!!AIN: vox
!!!EED: Helmut Schaffrath
!!!EEV: 1.0
!!!RDF**kern: l = terminal long
!!!AMD: Phrygian
!!!URL-scan: https://rosdok.uni-rostock.de/mcrviewer/recordIdentifier/rosdok_ppn738218359/iview2/phys_0372.iview2?x=-1816.6124862433817&y=271.44908096827567&scale=0.262872707487861&rotation=0&layout=singlePageLayout
!!!ENC: Anna Maria Matuszewska
!!!EEV: 2024/08/03
*-	*-
